X:181
T:Eliza
T:When I Landed in Glasgow
R:song
H:Mr. M'Kenzie says: "This is an air that may be heard in Antrim, or on th
H:
H:opposite coast of Scotland.  But it is only sung in Irish.
A:Antrim
B:
O:Irish
M:3/4
L:1/4
W:Now to conclude and to finish my song
W:I mean to be married and that before long:
W:For I have a spirit above my degree,
W:I would scorn to love anyone who would not love me.
K:D
ABE/F/|GAB/c/|dd/A/B|G2 z|AB(E/F/)|GAB/c/|deA|A2 A/B/|
cce|dcB|AEc|d2c/B/|AEF|GAB/c/|deA|A2||
